X:1
T:King Henry
M:2/4
L:1/16
K:F
 D2| D d3 dc A2|G-A c2A-G F2| D d3 c3 A| G4| F3 G|A-B A2A-G F2| D2D2D-E F2|\
 G2G2A-G F2| C2- D6| z4 z2||
